svg/umbrel.svg

<svg width="136" height="153" viewBox="0 0 136 153" fill="none" xmlns="http://www.w3.org/2000/svg">
<path d="M68.9012 153C71.4367 153 74.4702 152.532 78.0018 151.596C89.9248 147.129 95.8862 138.526 95.8862 125.789V89.3406C95.8862 88.6463 95.841 88.0426 95.7504 87.5295C95.7504 87.4389 95.7429 87.3786 95.7278 87.3484C95.7127 87.3182 95.6749 87.2578 95.6146 87.1673C94.377 84.0582 92.415 82.5037 89.7286 82.5037H89.3664L88.5966 82.549H88.1891C88.0986 82.549 87.9929 82.5943 87.8722 82.6848C84.7632 83.8922 83.2087 86.4428 83.2087 90.3367V127.69C83.2087 129.713 82.6955 131.69 81.6693 133.621C78.7715 138.179 74.4702 140.458 68.7653 140.458C64.4489 140.458 60.7966 139.115 57.8083 136.429C55.3633 134.436 54.1107 130.769 54.0503 125.426L53.9597 88.7067C53.9597 88.3746 53.9296 88.0275 53.8692 87.6653C53.8692 87.5446 53.8616 87.4616 53.8466 87.4163C53.8315 87.371 53.7786 87.288 53.6881 87.1673C52.4203 83.9979 50.413 82.4132 47.6662 82.4132C46.7909 82.5037 46.2023 82.6094 45.9004 82.7301C42.882 83.9375 41.3727 85.975 41.3727 88.8425L41.5086 126.92C41.5388 132.595 43.1084 137.711 46.2174 142.269C52.0128 149.423 59.5137 153 68.72 153H68.9012Z" fill="#5351FB"/>
<path fill-rule="evenodd" clip-rule="evenodd" d="M25.5208 58.9125C18.6033 58.9125 14.3654 60.9351 11.6704 64.1144C9.46277 66.7187 5.56189 67.0403 2.95755 64.8327C0.353214 62.6251 0.0316255 58.7242 2.23926 56.1198C7.89266 49.4506 16.032 46.5489 25.5208 46.5489C33.495 46.5489 40.8036 48.5739 47.2898 52.6542C54.0098 48.6709 61.0902 46.5489 68.4662 46.5489C75.6779 46.5489 82.4865 48.5788 88.8155 52.4409C94.4646 48.6375 101.245 46.8897 108.8 46.8897C118.276 46.8897 126.623 49.6337 133.406 55.4111C136.005 57.6249 136.317 61.5265 134.103 64.1256C131.889 66.7247 127.988 67.037 125.389 64.8232C121.143 61.2065 115.758 59.2534 108.8 59.2534C102.228 59.2534 97.504 60.9922 94.0522 63.9718C91.3522 66.3025 87.4077 66.4824 84.5068 64.4071L84.3977 64.3291C79.1716 60.6189 73.8995 58.9125 68.4662 58.9125C62.9349 58.9125 57.3185 60.683 51.5221 64.6048C48.8006 66.4461 45.2124 66.3652 42.5766 64.4031L42.3852 64.2605C37.5344 60.7095 31.9873 58.9125 25.5208 58.9125Z" fill="#5351FB"/>
<path fill-rule="evenodd" clip-rule="evenodd" d="M102.749 23.8855C93.7333 16.0662 82.1106 12.0941 67.347 12.3777C52.5144 12.6627 40.995 16.9254 32.2528 24.7461C23.4367 32.633 16.8611 44.6622 12.9784 61.5061C12.2115 64.833 8.89287 66.9083 5.56599 66.1414C2.23911 65.3745 0.163819 62.0559 0.930698 58.729C5.19224 40.2415 12.7344 25.6182 24.0095 15.5316C35.3586 5.37882 49.9039 0.346972 67.1095 0.0163837C84.3842 -0.315533 99.142 4.39126 110.85 14.5455C122.455 24.6116 130.482 39.5252 135.384 58.5771C136.234 61.8836 134.244 65.2536 130.937 66.1044C127.631 66.9551 124.261 64.9644 123.41 61.6579C118.905 44.1473 111.866 31.7929 102.749 23.8855Z" fill="#5351FB"/>
</svg>

<svg xmlns="http://www.w3.org/2000/svg" width="136" height="153" fill="none"><path fill="#5351FB" d="M68.901 153c2.536 0 5.57-.468 9.1-1.404 11.924-4.467 17.885-13.07 17.885-25.807V89.341c0-.695-.045-1.298-.136-1.811a.47.47 0 0 0-.022-.182 2.223 2.223 0 0 0-.113-.18c-1.238-3.11-3.2-4.664-5.886-4.664h-.363l-.77.045h-.407c-.09 0-.196.045-.317.136-3.109 1.207-4.663 3.758-4.663 7.652v37.353c0 2.023-.514 4-1.54 5.931-2.897 4.558-7.199 6.837-12.904 6.837-4.316 0-7.968-1.343-10.957-4.029-2.445-1.993-3.697-5.66-3.758-11.003l-.09-36.72c0-.331-.03-.678-.09-1.04a.915.915 0 0 0-.023-.25 1.173 1.173 0 0 0-.159-.249c-1.268-3.17-3.275-4.754-6.022-4.754-.875.09-1.464.196-1.766.317-3.018 1.207-4.527 3.245-4.527 6.112l.136 38.078c.03 5.675 1.6 10.791 4.708 15.349C52.013 149.423 59.514 153 68.72 153h.181Z"/><path fill="#5351FB" fill-rule="evenodd" d="M25.52 58.913c-6.917 0-11.155 2.022-13.85 5.201a6.182 6.182 0 0 1-9.43-7.994c5.653-6.67 13.792-9.571 23.28-9.571 7.975 0 15.284 2.025 21.77 6.105 6.72-3.983 13.8-6.105 21.176-6.105 7.212 0 14.02 2.03 20.35 5.892 5.649-3.803 12.429-5.551 19.984-5.551 9.476 0 17.823 2.744 24.606 8.521a6.182 6.182 0 0 1-8.017 9.412c-4.246-3.616-9.631-5.57-16.589-5.57-6.572 0-11.296 1.74-14.748 4.719a7.727 7.727 0 0 1-9.545.435l-.11-.078c-5.225-3.71-10.498-5.416-15.93-5.416-5.532 0-11.148 1.77-16.945 5.692a7.728 7.728 0 0 1-8.945-.202l-.192-.143c-4.85-3.55-10.398-5.348-16.864-5.348Z" clip-rule="evenodd"/><path fill="#5351FB" fill-rule="evenodd" d="M102.749 23.886c-9.016-7.82-20.638-11.792-35.402-11.508-14.833.285-26.352 4.547-35.094 12.368-8.816 7.887-15.392 19.916-19.275 36.76A6.182 6.182 0 1 1 .931 58.73c4.261-18.487 11.803-33.11 23.078-43.197C35.36 5.379 49.904.347 67.11.016c17.275-.332 32.033 4.375 43.741 14.53 11.605 10.066 19.632 24.98 24.534 44.031a6.182 6.182 0 0 1-11.974 3.08c-4.505-17.51-11.544-29.864-20.661-37.771Z" clip-rule="evenodd"/></svg>
